!!!ONB: MCCC : IJB0015_02 : Extracted Monophonic Melody
!!!COM: Brahms, Johannes
!!!OPR: Clarinet Sonata No.1
!!!OMV: 2
!!!SCT: Op.120 No.1
!!!ODT: 1894///
**kern
*staff1
=1
*clefG2
*k[b-e-a-d-]
*A-:
*M2/4
4.ee-
8ee-
=2
4dd-[
16dd-]
32dd-
32cc
32b-
32a
32b-
32cc
=3
4.dd-
8dd-
=4
4cc[
16cc]
32dd-
32cc
32b-
32a-
32b-
32cc
=5
4f
8aa-
32aa-[
32aa-]
32b-
32cc
=6
4g
8gg
32gg[
32gg]
32cc
32dd-
=7
8ff
8ee
8gg
8ff
=8
8ee-
8dd
8ff
8ee-
=9
8dd
8cc
8a-
8d
=10
4e-
4r
=11
8dd
8cc
8a-
8d
=12
8e-
8g
8b-
8dd
=13
4.ee-
8ee-
=14
4dd-[
16dd-]
32dd-
32cc
32b-
32a
32b-
32cc
=15
4.dd-
8dd-
=16
4cc[
16cc]
32a-
32b-
32cc
32a-
32b-
32cc
=17
4ee-
8dd-
32dd-[
32dd-]
32b-
32cc
=18
4gg
8ff
32ff[
32ff]
32cc
32ee-
=19
8bb-
8aa-
8ff
8g
=20
4a-
4r
=21
8b-
8a-
8f
8G
=22
8B-
8A-
8r
8A-
=23
4r
8r
16r
16A-
=24
8.f
16d-
4A-
=25
4r
8r
16r
16G-
=26
8.e-
16c-
4G-
=27
2dd-[
=28
4dd-]
8ee-
8dd-
=29
8dd-
8a-
8cc-
8a
=30
8.e
16g
4a-[
=31
16a-]
16f
16a-
16ff
16ee-
16cc
16a-
16ee-
=32
16r
16a-
16ff
16aa-
16ee-
16cc
16a-
16e-
=33
16r
16G-
16c-
16e-
16d-
16B-
16G-
16d-
=34
16r
16G-
16e-
16g-
16d-
16B-
16G-
16B-
=35
*k[f#c#g#d#]
*E:
4c#
4cc#[
=36
8cc#]
8cc#
8dd#
8ee
=37
8ee
8b#
8dd#
8cc#
=38
8.g#
16a
4b[
=39
8.b]
16b#
16dd#
16cc#
16a
16f#
=40
8.e
16g#
4b[
=41
8b]
8c#
4F#
=42
8r
8cc#
4B
=43
8r
8B#
4E[
=44
2E]
=45
8g
8g
8g
8g
=46
8e#
8e#
16e#
32e#
32e
32d
32c#
32d
32e
=47
8e#
8e#
4e#
=48
2G#
=49
*k[b-e-a-d-]
*A-:
4.e-
8e-
=50
4d-[
16d-]
32d-
32c
32B-
32A
32B-
32c
=51
4.d-
8d-
=52
4c[
16c]
32d-
32c-
32B-
32A-
32B-
32c-
=53
4F
8a-
32a-[
32a-]
32B-
32c-
=54
4G
8g
32g[
32g]
32c
32d-
=55
8f
8e
8g
8f
=56
8e-
8d
8f
8e-
=57
8d
8c
8A-
8D
=58
4E-
4r
=59
8dd
8cc
8a-
8d
=60
8e-
8g
8b-
8dd
=61
4.ee-
8ee-
=62
4dd-[
16dd-]
32dd-
32cc
32b-
32a
32b-
32cc
=63
4.dd-
8dd-
=64
4cc[
16cc]
32a-
32b-
32cc
32a-
32b-
32cc
=65
4ee-
8dd-
32dd-[
32dd-]
32b-
32cc
=66
4gg
8ff
32ff[
32ff]
32cc
32ee-
=67
8bb-
8aa-
8ff
8g
=68
4a-
4r
=69
8b-
8a-
8f
8G
=70
8B-
8B-
8A-
16G
16F
=71
4E-
8r
16r
16E-
=72
8.c
16A-
4E-
=73
16gg-
16b-
16g-
16ee-
16cc
16g-
16e-
16b-
=74
16g-
16B-
16G-
16e-
16c
16G-
16E-
16B-
=75
4.ee-
8ee-
=76
4dd-[
16dd-]
32dd-
32cc
32b-
32a
32b-
32cc
=77
4.dd-
8dd-
=78
4cc
4cc[
=79
4cc]
4cc[
=80
2cc]
=81
2a-[
=82
4a-]
4r
==
*-
